contents/blog/python-client/banner.svg

<?xml version="1.0" encoding="UTF-8" standalone="no"?>
<!DOCTYPE svg PUBLIC "-//W3C//DTD SVG 1.1//EN" "http://www.w3.org/Graphics/SVG/1.1/DTD/svg11.dtd">
<!-- Created with Vectornator (http://vectornator.io/) -->
<svg height="100%" stroke-miterlimit="10" style="fill-rule:nonzero;clip-rule:evenodd;stroke-linecap:round;stroke-linejoin:round;" version="1.1" viewBox="0 0 843.5 215.5" width="100%" xml:space="preserve" xmlns="http://www.w3.org/2000/svg" xmlns:vectornator="http://vectornator.io" xmlns:xlink="http://www.w3.org/1999/xlink">
<defs/>
<clipPath id="ArtboardFrame">
<rect height="215.5" width="843.5" x="0" y="0"/>
</clipPath>
<g clip-path="url(#ArtboardFrame)" id="Untitled" vectornator:layerName="Untitled">
<path d="M0 0L1100.3 0L1100.3 0L1100.3 215.5L1100.3 215.5L0 215.5L0 215.5L0 0L0 0Z" fill="#3c402b" fill-rule="nonzero" opacity="1" stroke="none"/>
<path d="M347.9 48.5L347.9 113.9L759.2 109.7L759.2 44.3L347.9 48.5Z" fill="#cb915b" fill-rule="nonzero" opacity="0.5" stroke="none"/>
<path d="M413.3 116L185.6 269.9L402.8 592.6L630.5 438.6L413.3 116Z" fill="#ab9c9b" fill-rule="nonzero" opacity="0.5" stroke="none"/>
<path d="M613.6 6.3L449.2 717L558.9 742.3L723.3 31.6L613.6 6.3Z" fill="#110c0c" fill-opacity="0.5" fill-rule="nonzero" opacity="1" stroke="none"/>
<path d="M225.6 73.8L259.3 398.5L366.8 385.8L333.2 61.2L225.6 73.8Z" fill="#000a0e" fill-opacity="0.5" fill-rule="nonzero" opacity="1" stroke="none"/>
<path d="M516.6 44.3L461.8 57L573.6 529.4L628.4 516.7L516.6 44.3Z" fill="#c8a365" fill-opacity="0.5" fill-rule="nonzero" opacity="1" stroke="none"/>
<path d="M426 12.7L805.6 181.4L856.2 65.4L476.6-101.2L426 12.7Z" fill="#747b50" fill-opacity="0.5" fill-rule="nonzero" opacity="1" stroke="none"/>
<path d="M341.6 177.1L383.8 185.5L531.4-468.2L489.2-476.6L341.6 177.1Z" fill="#d08375" fill-opacity="0.5" fill-rule="nonzero" opacity="1" stroke="none"/>
<path d="M567.3 97L440.8 253L900.5 626.2L1027 470.2L567.3 97Z" fill="#170b0e" fill-opacity="0.5" fill-rule="nonzero" opacity="1" stroke="none"/>
<path d="M265.7 25.3L449.2 90.7L506.1-65.4L322.6-130.7L265.7 25.3Z" fill="#5b6f3c" fill-rule="nonzero" opacity="0.5" stroke="none"/>
<path d="M710.6 2.1L693.7 265.7L731.7 267.8L748.6 4.2L710.6 2.1Z" fill="#c1cda3" fill-opacity="0.5" fill-rule="nonzero" opacity="1" stroke="none"/>
<path d="M750.7 181.4L788.7 430.2L1208.3 360.6L1170.3 111.8L750.7 181.4Z" fill="#000000" fill-opacity="0.5" fill-rule="nonzero" opacity="1" stroke="none"/>
<path d="M223.5 46.4L35.8 118.1L219.3 582L407 510.3L223.5 46.4Z" fill="#3a1a14" fill-rule="nonzero" opacity="0.5" stroke="none"/>
<path d="M748.6 52.7L993.2 261.5L1242.1-33.7L997.4-242.5L748.6 52.7Z" fill="#06130e" fill-rule="nonzero" opacity="0.5" stroke="none"/>
<path d="M257.3 27.4L269.9 52.7L497.7-63.3L485-88.6L257.3 27.4Z" fill="#79b966" fill-rule="nonzero" opacity="0.5" stroke="none"/>
<path d="M417.5 82.2L613.6 567.2L647.3 552.4L451.2 67.4L417.5 82.2Z" fill="#2a0912" fill-opacity="0.5" fill-rule="nonzero" opacity="1" stroke="none"/>
<path d="M50.6 183.5L-19 295.2L194 432.3L263.6 320.5L50.6 183.5Z" fill="#dc6f52" fill-opacity="0.5" fill-rule="nonzero" opacity="1" stroke="none"/>
<path d="M107.5 181.4L215.1 219.3L291 2.1L183.5-33.7L107.5 181.4Z" fill="#36251b" fill-rule="nonzero" opacity="0.5" stroke="none"/>
<path d="M312.1 166.6L453.4 318.4L512.4 261.5L371.1 109.7L312.1 166.6Z" fill="#aaa094" fill-opacity="0.5" fill-rule="nonzero" opacity="1" stroke="none"/>
<path d="M655.8 23.2L672.7 139.2L727.5 130.8L710.6 14.8L655.8 23.2Z" fill="#191611" fill-opacity="0.5" fill-rule="nonzero" opacity="1" stroke="none"/>
<path d="M126.5 33.7L69.6 44.3L75.9 78L132.8 67.5L126.5 33.7Z" fill="#ea8943" fill-opacity="0.5" fill-rule="nonzero" opacity="1" stroke="none"/>
<path d="M565.1 50.6L674.8 170.8L742.3 107.5L632.6-10.5L565.1 50.6Z" fill="#3b281c" fill-rule="nonzero" opacity="0.5" stroke="none"/>
<path d="M143.4 185.6L172.9 204.6L463.9-272L434.4-291L143.4 185.6Z" fill="#281915" fill-opacity="0.5" fill-rule="nonzero" opacity="1" stroke="none"/>
<path d="M438.6 128.6L-10.5 792.9L12.7 807.7L461.9 143.4L438.6 128.6Z" fill="#1a1010" fill-opacity="0.5" fill-rule="nonzero" opacity="1" stroke="none"/>
<path d="M710.6 99.1L742.2 103.3L799.1-244.6L767.5-248.8L710.6 99.1Z" fill="#c4cf97" fill-opacity="0.5" fill-rule="nonzero" opacity="1" stroke="none"/>
<path d="M463.751 92.6665C459.417 75.7606 481.493 55.4967 513.058 47.4059C544.623 39.3151 573.724 46.4612 578.057 63.3671C582.391 80.2731 560.315 100.537 528.75 108.628C497.186 116.719 468.084 109.572 463.751 92.6665Z" fill="#fff17f" fill-opacity="0.5" fill-rule="nonzero" opacity="1" stroke="none"/>
<path d="M653.501 88.3091C640.731 70.2153 634.22 52.8368 638.957 49.4931C643.695 46.1494 657.888 58.1067 670.658 76.2005C683.427 94.2943 689.939 111.673 685.201 115.017C680.463 118.36 666.27 106.403 653.501 88.3091Z" fill="#fac77f" fill-rule="nonzero" opacity="0.5" stroke="none"/>
<path d="M406.955 74.9411C405.186 55.2484 409.415 38.7755 416.401 38.1478C423.387 37.5201 430.485 52.9754 432.254 72.6681C434.023 92.3608 429.794 108.834 422.808 109.461C415.822 110.089 408.725 94.6338 406.955 74.9411Z" fill="#3d0000" fill-rule="nonzero" opacity="0.5" stroke="none"/>
<path d="M770.571 163.013C767.594 151.746 777.042 139.48 791.672 135.615C806.302 131.75 820.575 137.75 823.551 149.017C826.527 160.283 817.08 172.549 802.45 176.414C787.82 180.279 773.547 174.279 770.571 163.013Z" fill="#ded192" fill-opacity="0.5" fill-rule="nonzero" opacity="1" stroke="none"/>
<path d="M153.91 62.5181C147.486 54.221 156.474 36.5037 173.986 22.9456C191.497 9.38741 210.9 5.12251 217.324 13.4197C223.748 21.7168 214.76 39.434 197.249 52.9922C179.738 66.5503 160.334 70.8152 153.91 62.5181Z" fill="#987848" fill-opacity="0.5" fill-rule="nonzero" opacity="1" stroke="none"/>
</g>
</svg>

<?xml version="1.0" encoding="utf-8"?>
<!-- Generator: Adobe Illustrator 26.3.1, SVG Export Plug-In . SVG Version: 6.00 Build 0)  -->
<svg version="1.1" id="Layer_1" xmlns="http://www.w3.org/2000/svg" xmlns:xlink="http://www.w3.org/1999/xlink" x="0px" y="0px"
	 viewBox="0 0 843.5 215.5" style="enable-background:new 0 0 843.5 215.5;" xml:space="preserve">
<style type="text/css">
	.st0{fill:#3C402B;}
	.st1{filter:url(#g0.6);}
	.st2{opacity:0.5;fill:#CB915B;}
	.st3{opacity:0.5;fill:#AB9C9B;}
	.st4{fill:#110C0C;fill-opacity:0.5;}
	.st5{fill:#000A0E;fill-opacity:0.5;}
	.st6{fill:#C8A365;fill-opacity:0.5;}
	.st7{fill:#747B50;fill-opacity:0.5;}
	.st8{fill:#D08375;fill-opacity:0.5;}
	.st9{fill:#170B0E;fill-opacity:0.5;}
	.st10{opacity:0.5;fill:#5B6F3C;}
	.st11{fill:#C1CDA3;fill-opacity:0.5;}
	.st12{fill-opacity:0.5;}
	.st13{filter:url(#g1);}
	.st14{opacity:0.5;fill:#3A1A14;}
	.st15{opacity:0.5;fill:#06130E;}
	.st16{opacity:0.5;fill:#79B966;}
	.st17{fill:#2A0912;fill-opacity:0.5;}
	.st18{fill:#DC6F52;fill-opacity:0.5;}
	.st19{opacity:0.5;fill:#36251B;}
	.st20{fill:#AAA094;fill-opacity:0.5;}
	.st21{fill:#191611;fill-opacity:0.5;}
	.st22{fill:#EA8943;fill-opacity:0.5;}
	.st23{opacity:0.5;fill:#3B281C;}
	.st24{fill:#281915;fill-opacity:0.5;}
	.st25{fill:#1A1010;fill-opacity:0.5;}
	.st26{fill:#C4CF97;fill-opacity:0.5;}
	.st27{fill:#FFF17F;fill-opacity:0.5;}
	.st28{opacity:0.5;fill:#FAC77F;}
	.st29{filter:url(#g10);}
	.st30{opacity:0.5;fill:#3D0000;}
	.st31{fill:#DED192;fill-opacity:0.5;}
	.st32{fill:#987848;fill-opacity:0.5;}
</style>
<filter  id="g10">
	<feGaussianBlur  stdDeviation="10"></feGaussianBlur>
</filter>
<filter  id="g1">
	<feGaussianBlur  stdDeviation="1"></feGaussianBlur>
</filter>
<filter  id="g0.6">
	<feGaussianBlur  stdDeviation="0.6"></feGaussianBlur>
</filter>
<rect x="0" y="0" class="st0" width="1100.3" height="215.5"/>
<g class="st1">
	<polygon class="st2" points="347.9,48.5 347.9,113.9 759.2,109.7 759.2,44.3 	"/>
</g>
<g class="st1">
	<polygon class="st3" points="413.3,116 185.6,269.9 402.8,592.6 630.5,438.6 	"/>
</g>
<path class="st4" d="M613.6,6.3L449.2,717l109.7,25.3L723.3,31.6L613.6,6.3z"/>
<path class="st5" d="M225.6,73.8l33.7,324.7l107.5-12.7L333.2,61.2L225.6,73.8z"/>
<path class="st6" d="M516.6,44.3l-54.8,12.7l111.8,472.4l54.8-12.7L516.6,44.3z"/>
<path class="st7" d="M426,12.7l379.6,168.7l50.6-116L476.6-101.2L426,12.7z"/>
<path class="st8" d="M341.6,177.1l42.2,8.4l147.6-653.7l-42.2-8.4L341.6,177.1z"/>
<path class="st9" d="M567.3,97l-126.5,156l459.7,373.2l126.5-156L567.3,97z"/>
<g class="st1">
	<polygon class="st10" points="265.7,25.3 449.2,90.7 506.1,-65.4 322.6,-130.7 	"/>
</g>
<path class="st11" d="M710.6,2.1l-16.9,263.6l38,2.1L748.6,4.2L710.6,2.1z"/>
<path class="st12" d="M750.7,181.4l38,248.8l419.6-69.6l-38-248.8L750.7,181.4z"/>
<g class="st13">
	<polygon class="st14" points="223.5,46.4 35.8,118.1 219.3,582 407,510.3 	"/>
</g>
<g class="st1">
	<polygon class="st15" points="748.6,52.7 993.2,261.5 1242.1,-33.7 997.4,-242.5 	"/>
</g>
<g class="st1">
	<polygon class="st16" points="257.3,27.4 269.9,52.7 497.7,-63.3 485,-88.6 	"/>
</g>
<path class="st17" d="M417.5,82.2l196.1,485l33.7-14.8l-196.1-485L417.5,82.2z"/>
<path class="st18" d="M50.6,183.5L-19,295.2l213,137.1l69.6-111.8L50.6,183.5z"/>
<g class="st1">
	<polygon class="st19" points="107.5,181.4 215.1,219.3 291,2.1 183.5,-33.7 	"/>
</g>
<path class="st20" d="M312.1,166.6l141.3,151.8l59-56.9L371.1,109.7L312.1,166.6z"/>
<path class="st21" d="M655.8,23.2l16.9,116l54.8-8.4l-16.9-116L655.8,23.2z"/>
<path class="st22" d="M126.5,33.7L69.6,44.3L75.9,78l56.9-10.5L126.5,33.7z"/>
<g class="st13">
	<polygon class="st23" points="565.1,50.6 674.8,170.8 742.3,107.5 632.6,-10.5 	"/>
</g>
<path class="st24" d="M143.4,185.6l29.5,19l291-476.6l-29.5-19L143.4,185.6z"/>
<path class="st25" d="M438.6,128.6L-10.5,792.9l23.2,14.8l449.2-664.3L438.6,128.6z"/>
<path class="st26" d="M710.6,99.1l31.6,4.2l56.9-347.9l-31.6-4.2L710.6,99.1z"/>
<ellipse transform="matrix(0.9687 -0.2483 0.2483 0.9687 -3.0591 131.7977)" class="st27" cx="520.9" cy="78" rx="59" ry="31.6"/>
<g class="st13">
	
		<ellipse transform="matrix(0.817 -0.5766 0.5766 0.817 73.7469 396.8643)" class="st28" cx="662.1" cy="82.2" rx="10.5" ry="40.1"/>
</g>
<g class="st29">
	
		<ellipse transform="matrix(0.996 -8.948764e-02 8.948764e-02 0.996 -4.9211 37.8488)" class="st30" cx="419.6" cy="73.8" rx="12.7" ry="35.8"/>
</g>
<ellipse transform="matrix(0.9668 -0.2554 0.2554 0.9668 -13.4178 208.7732)" class="st31" cx="797.1" cy="156" rx="27.4" ry="21.1"/>
<ellipse transform="matrix(0.7907 -0.6122 0.6122 0.7907 15.5998 121.5466)" class="st32" cx="185.6" cy="38" rx="40.1" ry="19"/>
</svg>
